X: 54
T: Obrońca uciśnionych, Boże litościwy,
C: Mikołaj Gomółka
%%abc-version 2.0
%%abcx-abcm2ps-target-version 5.9.1 (29 Sep 2008)
%%abc-creator hum2abc beta
%%abcx-conversion-date 2021/10/04 07:59:09
%%abc-edited-by Marta Lawrence
%%abcx-initial-encoding-date 2020-02-11
%%humdrum-veritas 3331608334
%%humdrum-veritas-data 189207275
%%linebreak <none>
%%barnumbers 0
L: 1/4
M: C|
N: Derived from pl-wn--sd-xvi-qu-273--055_gomolka-mikolaj--obronca-ucisnionych-boze-litosciwy.krn
%%staves [1 2 3 4]
V: 1
V: 2 clef=alto
V: 3 clef=tenor
V: 4 clef=bass
K: F
[V:1] A4A4 [|] 
[V:2] D4E4 [|] 
[V:3] A,2>B,2^C4 [|] 
[V:4] D,4A,,4 [|] 
[V:1] A2B2B2A2 [|] 
[V:2] F2F2G2E2 [|] 
[V:3] D2D2D2=C2 [|] 
[V:4] D,2B,2G,2A,2 [|] 
[V:1] A2A2>B2c2 [|] 
[V:2] F2D4C2 [|] 
[V:3] D2F4E2 [|] 
[V:4] D,2D,4A,,2 [|] 
[V:1] B2A4G2 [|] 
[V:2] DEFEDCD2 [|] 
[V:3] D2C2B,4 [|] 
[V:4] B,,2F,,2G,,4 [|] 
[V:1] A4 :|]  
[V:2] D4 :|]  
[V:3] A,4 :|]  
[V:4] D,4 :|]  
[V:1] A4 [I:setbarnb 6][|] 
[V:2] E4 [|] 
[V:3] ^C4 [|] 
[V:4] A,,4 [|] 
[V:1] A4A2c2 [|] 
[V:2] F4F2C2 [|] 
[V:3] D4D2G2 [|] 
[V:4] D,4D,2E,2 [|] 
[V:1] c2^c2d2d2 [|] 
[V:2] C2A2A2A2 [|] 
[V:3] F2E2D2F2 [|] 
[V:4] F,G,A,2D,2D,2 [|] 
[V:1] d2=c2B2A2 [|] 
[V:2] B2AGF2F2 [|] 
[V:3] F2E2D2D2 [|] 
[V:4] B,,2C,2D,3E, [|] 
[V:1] A2B2A2A2 [|] 
[V:2] F2F2F2F2 [|] 
[V:3] =C2D2D2C2 [|] 
[V:4] F,2B,,C,D,E,F,2 [|] 
[V:1] G4^F2G2 [|] 
[V:2] D2D2D2C2 [|] 
[V:3] B,4A,2G,2 [|] 
[V:4] G,2G,,2D,2E,2 [|] 
[V:1] =F2_E4DE [|] 
[V:2] D2G,2>A,2B,C [|] 
[V:3] A,2C4B,2 [|] 
[V:4] D,2C,4G,,2 [|] 
[V:1] ^F2G4=F2 [|] 
[V:2] D2C2ED/E/DC [|] 
[V:3] A,2G,2A,4 [|] 
[V:4] D,2E,2C,2D,2 [|] 
[V:1] G32 |]  
[V:2] =B,32 |]  
[V:3] G,32 |]  
[V:4] G,,32 |]  


